X:393
T:Gilderoy
T:The Rambling Rake
C:Traditional English/Scottish/Irish
R:Hornpipe
S:Colin Hume's website,  colinhume.com  - chords can also be printed below the stave.
Q:1/2=80
M:4/4
L:1/8
%%MIDI ratio 3 1
K:Amin
P:A
|: E2 | "Am"A2A>B c>Bc>d | "Am"e>fe>c "G"d2 c>d | "Am"e>dc>B A>Bc>A | "E7"B2E2 E2E2 |
"Am"A2A>B c>Bc>d | "Am"e>fe>c "Dm"d2c>d | "Am"e>a^g>a "E7"e>dc>B | "Am"c2 A2 A2 :|
P:B
|: e>f | "C"g2 g>a g>fe>f | "C"g>fe>c "G"d2 c>d | "Am"e>dc>B A>Bc>A | "E7"B2E2 E2E2 |
"Am"A2A>B c>Bc>d | "Am"e>fe>c "Dm"d2c>d | "Am"e>a^g>a "E7"e>dc>B | "Am"c2 A2 A2 :|

